X:69
T:Macallum's
M:6/8
L:1/8
F:http://blackrosetheband.googlepages.com/ABCTUNES.ABC May 2009
S:Traditional
K:C
"Dm"ADD DEG|Add "C"c2e|"Dm"dcA "C"AGE|"(G)"c2A "C"GED|
"Dm"ADD D/2E/2FG|Add "C"c2e|"Dm"dcA "G"AGE|"C"GED "Dm"D3:|
|:"Dm"Add dcd|cde "C"e2d|"Dm"cAA "G"AGE|"C"c2e "G"dcA|
"Dm"Add dcd|1 cde "C"e2d|"Dm"cAA "G"AGE|"C"GED "Dm"D2G:||
|2 cde "Am"a2g|"Dm"edc "G"AGE|"C"GED "Dm"D2||
